Origami/16x16/apps/system-config-samba.svg

<svg width="16" height="16" version="1.1" viewBox="0 0 16 16" xmlns="http://www.w3.org/2000/svg">
 <path d="m8 0a8 8 0 0 0 -8 8 8 8 0 0 0 8 8 8 8 0 0 0 8 -8 8 8 0 0 0 -8 -8z" style="fill:#48aeff"/>
 <rect x="5" y="5" width="1" height="7" ry=".5" style="fill:#ffffff"/>
 <path d="m5.4702335 4.0005323a0.55442716 0.37136378 0 0 0 -0.4502966 0.1851592l-1.9455844 2.2571778a0.55442716 0.37136378 0 0 0 0.4800629 0.5571307h3.8911692a0.55442716 0.37136378 0 0 0 0.4800629 -0.5571307l-1.9455844-2.2571778a0.55442716 0.37136378 0 0 0 -0.5098296 -0.1851592z" style="fill:#ffffff"/>
 <rect transform="scale(1,-1)" x="10" y="-11" width="1" height="7" ry=".5" style="fill:#ffffff"/>
 <path d="m10.470233 11.999468a0.55442716 0.37136378 0 0 1 -0.450296 -0.18516l-1.9455845-2.2571773a0.55442716 0.37136378 0 0 1 0.4800629 -0.5571307h3.8911696a0.55442716 0.37136378 0 0 1 0.480063 0.5571307l-1.945585 2.2571773a0.55442716 0.37136378 0 0 1 -0.50983 0.18516z" style="fill:#ffffff"/>
</svg>

<svg xmlns="http://www.w3.org/2000/svg" width="16" height="16" version="1.1" viewBox="0 0 16 16">
 <path style="fill:#48aeff" d="M 8,0 A 8,8 0 0 0 0,8 8,8 0 0 0 8,16 8,8 0 0 0 16,8 8,8 0 0 0 8,0 Z"/>
 <rect style="fill:#ffffff" width="1" height="7" x="5" y="5" ry=".5"/>
 <path style="fill:#ffffff" d="M 5.4702335,4.0005323 A 0.55442716,0.37136378 0 0 0 5.0199369,4.1856915 L 3.0743525,6.4428693 A 0.55442716,0.37136378 0 0 0 3.5544154,7 H 7.4455846 A 0.55442716,0.37136378 0 0 0 7.9256475,6.4428693 L 5.9800631,4.1856915 A 0.55442716,0.37136378 0 0 0 5.4702335,4.0005323 Z"/>
 <rect style="fill:#ffffff" width="1" height="7" x="10" y="-11" ry=".5" transform="scale(1,-1)"/>
 <path style="fill:#ffffff" d="m 10.470233,11.999468 a 0.55442716,0.37136378 0 0 1 -0.450296,-0.18516 L 8.0743525,9.5571307 A 0.55442716,0.37136378 0 0 1 8.5544154,9 h 3.8911696 a 0.55442716,0.37136378 0 0 1 0.480063,0.5571307 l -1.945585,2.2571773 a 0.55442716,0.37136378 0 0 1 -0.50983,0.18516 z"/>
</svg>
